X: 1
T: Donaghmore, The
M: 4/4
L: 1/8
R: reel
K: Gmaj
|:A|BG~G2 DG~G2|ABcA d2cA|BG~G2 DG~G2|AdcA G3:|
B|dg~g2 bg~g2|dg~g2 fdcA|dg~g2 bg~g2|d^cde ~f3a|
bgaf g2fe|d2eg fdcA|BGAF DG~G2|AdcA G3||
